X:833
T:Sean Chaisteal Ghart
R:Reel
C:James Stewart-Robertson
B:The Athole Collection
M:C|
L:1/8
K:A
e|cA e/e/e f2 (ed|cA e/e/e dBBe|cA e/e/e f2 (ef|afed cAAe:|
|:a2 (ec f2 (ef|a2 (ec fBBf|1 a2 (ec f2 (ef|afed cAAe:|2 afec f2 (ed|
deBe cAAe||

